X:1
T:Clairières dans le ciel
T:Parfois, je suis triste
T:Clairières dans le ciel
T:Lili Boulanger
T:3. Parfois,je suis triste 
T:Francis Jammes
T:A Fernand Francell
T:Creative Commons copyright waiver (CC0 1.0 Universal)
T:Creative Commons copyright waiver (CC0 1.0 Universal)
T:Creative Commons copyright waiver (CC0 1.0 Universal)
T:Creative Commons copyright waiver (CC0 1.0 Universal)
T:Creative Commons copyright waiver (CC0 1.0 Universal)
C:Lili Boulanger
Z:Francis Jammes
Z:Creative Commons copyright waiver (CC0 1.0 Universal)
L:1/8
Q:1/4=66
M:4/4
K:C
V:1 treble nm="Chant\nVoice"
V:1
"^Assez lent et assez libre" z2 | z8 | z2 z!p! e e4- | e2- e z!<(! (e3 e!<)! |!>(! ^f6!>)! e2- | %5
w: ||Par- fois|_ _ je suis|tris- te|
 e) z z2 z4 | z2!p! ^c3/2 c/ ^g4- | g2 (^d2 ^c3 =A | ^G8- |!>(! G4!>)! ^G2) z2 | z2 z B ^f4- | %11
w: _|Et, sou- dain,|_ je pen- se‿à|el-|* le|A- lors,|
 f2 e2 B3 =A | B8- | B z z2 z4 | z2 =a2 z ^f (3f f f | !>!g6!>(! =f2!>)! | %16
w: _ je suis joy-|\- eux|_|Mais je re- de- viens|tris- te|
 z2 z!<(! e ^c c!<)! (3!tenuto!d d d | f6- f f | g4-!>(! g f2 g!>)! |!>(! !tenuto!a4!>)! ^c2 z2 || %20
w: de ce que je ne sais|pas _ com-|bien _ el- le|m'ai- me.|
[M:3/4] z6 | z6 | z2 z2!p! ^c2 | ^d3 ^A A d | ^c4 c2 | ^d3 ^B ^c"^(D# / Eb)" d | =f3- f/ z/ f2 | %27
w: ||Elle|est la jeu- ne|fille à|l'â- me tou- te|clai- re, et|
"^cresc." =g3 d d g | f6 | g3 d (3d e g |!mf! a4- a!p! A |!<(! ^c3 c B A!<)! | e2- e!>(! d2!>)! e | %33
w: qui, de- dans son|cœur|garde a- vec ja- lou-|si- e l'u-|ni- que pas- si-|on _ que l'on|
!p! ^f6- | f2!>(! ^F3!>)! ^c ||[M:4/4] ^c4- c z z2 | z8 ||[M:3/4] z6 ||[M:4/4] z2!p! A2 A3 A | %39
w: donne|_ à un|seul _|||Elle est par-|
 e4- e2 d2 | c3 B A2 (3A c d | e2 z E2 E (3E E D | %42
w: ti- e a-|vant que s'ou- vrent les til-|leuls, et, comme ils ont fleu-|
!<(! G3/2 G/!<)! c2- c !tenuto!c !tenuto!c!>(! !tenuto!d!>)! | (d6 F2-) | F z z2 z4 | %45
w: \- ri de- puis _ qu'elle est par-|ti- e|_|
 z!mf! A (3!tenuto!=B B B (3!tenuto!c c c !tenuto!e2 | %46
w: Je me suis é- ton- né de voir,|
 z !tenuto!e !tenuto!d3/2 !tenuto!g/ !tenuto!e2- e z | z!p! (A B3/2 B/ G/ G/ A3) | %48
w: ô mes a- mis, _|des bran- ches de til- leuls|
!pp! (3(A d g e4 d2 | A8-) | A2 z2 z4 | z8 |] %52
w: qui n'a- vaient pas de|fleurs|_||

